packages/core/src/svgs/tokens/mono/CATHEON.svg

<svg width="24" height="24" viewBox="0 0 24 24" fill="none" xmlns="http://www.w3.org/2000/svg">
<path d="M10.7815 15.75C9.69398 15.75 9.61274 14.7126 9.70649 14.1875L8.35646 13.7375L7.29395 16.1875L7.93771 17.9813L11.169 21.4751L12.4378 21.8502C12.6253 21.9001 13.1252 22.0001 13.5628 22.0001C18.7816 22.0001 20.4567 18.7938 20.4316 17.0875C20.4316 16.9813 20.4192 16.8813 20.4067 16.7875C19.8879 13.4124 17.3753 13.25 16.7379 13.25C16.1756 13.2346 15.6192 13.3682 15.1254 13.6374C11.5628 15.3375 11.0378 15.75 10.7815 15.75Z" fill="white"/>
<path d="M3.5625 11.5254C3.5625 10.9753 3.70625 10.1503 3.78125 9.80656L4.37501 8.49401L5.32503 7.05649L12.194 5.48145L12.9064 8.95651C12.2565 8.55266 11.5192 8.31047 10.7563 8.25026C9.94385 8.25026 9.8251 9.17523 9.8126 9.51284V18.1129C9.8126 20.4129 11.6564 21.5755 12.6252 21.8943C4.06251 20.4443 3.5625 13.2691 3.5625 11.5254Z" fill="white"/>
<path d="M20.4376 6.87509C20.4376 9.64395 17.9375 10.7501 16.625 10.7501C15.5249 10.7501 13.3313 9.73758 11.5124 8.71888C9.6874 7.7001 8.26238 7.00008 7.60612 7.00008C5.41858 7.00008 4.59982 8.73137 3.76855 9.8439C5.50609 2.83752 11.3562 2 13.8125 2C16.2687 2 20.4376 3.41252 20.4376 6.87509Z" fill="white"/>
</svg>

<svg xmlns="http://www.w3.org/2000/svg" width="24" height="24" fill="none" viewBox="0 0 24 24">
    <path fill="#fff" d="M10.782 15.75c-1.088 0-1.17-1.037-1.076-1.562l-1.35-.45-1.062 2.45.644 1.793 3.231 3.494 1.269.375c.187.05.687.15 1.125.15 5.219 0 6.894-3.206 6.869-4.913 0-.106-.013-.206-.025-.3-.52-3.375-3.032-3.537-3.67-3.537a3.2 3.2 0 0 0-1.612.387c-3.562 1.7-4.087 2.113-4.344 2.113"/>
    <path fill="#fff" d="M3.563 11.525c0-.55.143-1.375.218-1.718l.594-1.313.95-1.438 6.869-1.575.712 3.476a4.8 4.8 0 0 0-2.15-.707c-.812 0-.93.925-.943 1.263v8.6c0 2.3 1.843 3.463 2.812 3.781-8.562-1.45-9.062-8.625-9.062-10.369"/>
    <path fill="#fff" d="M20.438 6.875c0 2.769-2.5 3.875-3.813 3.875-1.1 0-3.294-1.012-5.113-2.031C9.687 7.7 8.262 7 7.606 7 5.42 7 4.6 8.731 3.77 9.844 5.506 2.838 11.356 2 13.813 2s6.625 1.413 6.625 4.875"/>
</svg>
